src/assets/tochka_bank_cyr_one_line.svg

<svg width="966" height="128" viewBox="0 0 966 128" fill="none" xmlns="http://www.w3.org/2000/svg">
<path d="M900.816 123.971H874.965V35.5316H900.816V67.591H907.278C920.019 67.591 924.451 65.38 932.39 46.7708L937.191 35.5316H962.488V37.5583L955.471 54.8778C951.225 65.38 945.87 73.487 939.407 78.6459L965.258 121.945V123.971H938.115L916.511 87.8584H900.816V123.971Z" fill="#7F42E1"/>
<path d="M768.757 35.5316H794.607V65.7485H826.921V35.5316H852.771V123.971H826.921V88.2269H794.607V123.971H768.757V35.5316Z" fill="#7F42E1"/>
<path d="M664.176 36.8212C675.07 34.2417 687.81 33.5047 695.935 33.5047C734.711 33.5047 745.051 50.6399 744.682 69.4334V104.994L753.914 105.178V123.603C749.852 124.708 745.42 125.629 740.989 125.629C730.095 125.629 724.555 119.918 723.263 112.916H721.601C714.954 122.129 703.136 126.182 691.688 126.182C673.962 126.182 657.528 116.601 657.528 96.3338C657.528 73.4869 678.578 67.5909 699.443 67.5909H720.678C720.308 56.7202 707.568 52.8509 693.35 52.8509C684.856 52.8509 674.331 54.3249 666.761 57.2729L664.176 36.8212ZM683.379 96.3338C683.379 104.257 688.734 107.389 697.412 107.389C711.445 107.389 720.678 99.466 720.678 84.3576L704.244 84.1733C688.918 84.1733 683.379 88.2268 683.379 96.3338Z" fill="#7F42E1"/>
<path d="M606.672 25.3978C582.483 27.4245 569.373 35.7157 567.158 57.4572H569.189C576.205 45.2967 588.577 38.4795 604.641 38.4795C626.43 38.4795 647.295 51.7454 647.295 82.5151C647.295 111.811 626.614 126.735 597.625 126.735C564.203 126.735 546.292 104.994 546.292 66.8539C546.292 39.2165 555.156 7.15708 606.672 2.91934L637.693 0.339844L638.062 22.8183L606.672 25.3978ZM598.178 104.994C614.243 104.994 620.706 95.5968 620.706 82.5151C620.706 68.3279 613.504 60.0367 598.732 60.0367C584.699 60.0367 576.759 67.7751 573.066 74.9609C573.066 92.6488 579.529 104.994 598.178 104.994Z" fill="#7F42E1"/>
<path d="M412.088 36.8212C422.983 34.2417 435.723 33.5047 443.848 33.5047C482.624 33.5047 492.964 50.6399 492.595 69.4334V104.994L501.827 105.178V123.603C497.765 124.708 493.333 125.629 488.902 125.629C478.007 125.629 472.468 119.918 471.175 112.916H469.514C462.866 122.129 451.049 126.182 439.601 126.182C421.875 126.182 405.441 116.601 405.441 96.3338C405.441 73.4869 426.491 67.5909 447.356 67.5909H468.59C468.221 56.7202 455.48 52.8509 441.263 52.8509C432.769 52.8509 422.244 54.3249 414.673 57.2729L412.088 36.8212ZM431.292 96.3338C431.292 104.257 436.646 107.389 445.325 107.389C459.358 107.389 468.59 99.466 468.59 84.3576L452.157 84.1733C436.831 84.1733 431.292 88.2268 431.292 96.3338Z" fill="#7F42E1"/>
<path d="M334.431 123.971H308.58V35.5316H334.431V67.591H340.894C353.634 67.591 358.066 65.38 366.006 46.7708L370.807 35.5316H396.103V37.5583L389.087 54.8778C384.84 65.38 379.485 73.487 373.022 78.6459L398.873 121.945V123.971H371.73L350.126 87.8584H334.431V123.971Z" fill="#7F42E1"/>
<path d="M260.6 35.5316H286.45V123.971H260.6V92.2804C253.583 95.2284 245.458 97.0709 237.149 97.0709C217.577 97.0709 201.882 86.9372 201.882 61.8792V35.5316H227.732V62.0635C227.732 70.1705 232.902 76.9877 244.166 76.9877C249.336 76.9877 255.429 75.5137 260.6 73.3027V35.5316Z" fill="#7F42E1"/>
<path d="M141.2 126.919C114.057 126.919 91.3455 109.231 91.3455 79.7513C91.3455 50.2714 114.057 32.5834 141.2 32.5834C168.159 32.5834 190.871 50.2714 190.871 79.7513C190.871 109.231 168.159 126.919 141.2 126.919ZM141.2 105.178C155.787 105.178 164.281 94.307 164.281 79.7513C164.281 65.1956 155.787 54.3249 141.2 54.3249C126.429 54.3249 117.935 65.1956 117.935 79.7513C117.935 94.307 126.429 105.178 141.2 105.178Z" fill="#7F42E1"/>
<path d="M84.9376 35.5316V58.3785H55.7633V123.971H29.9126V58.3785H0.738281V35.5316H84.9376Z" fill="#7F42E1"/>
</svg>

<svg xmlns="http://www.w3.org/2000/svg" width="966" height="128" fill="none" viewBox="0 0 966 128">
    <path fill="#7f42e1" d="M900.816 123.971h-25.851v-88.44h25.851v32.06h6.462c12.741 0 17.173-2.211 25.112-20.82l4.801-11.24h25.297v2.027l-7.017 17.32c-4.246 10.502-9.601 18.609-16.064 23.768l25.851 43.299v2.026h-27.143l-21.604-36.113h-15.695zM768.757 35.532h25.85v30.217h32.314V35.532h25.85v88.439h-25.85V88.227h-32.314v35.744h-25.85zm-104.581 1.289c10.894-2.58 23.634-3.316 31.759-3.316 38.776 0 49.116 17.135 48.747 35.928v35.561l9.232.184v18.425c-4.062 1.105-8.494 2.026-12.925 2.026-10.894 0-16.434-5.711-17.726-12.713h-1.662c-6.647 9.213-18.465 13.266-29.913 13.266-17.726 0-34.16-9.581-34.16-29.848 0-22.847 21.05-28.743 41.915-28.743h21.235c-.37-10.87-13.11-14.74-27.328-14.74-8.494 0-19.019 1.474-26.589 4.422zm19.203 59.513c0 7.923 5.355 11.055 14.033 11.055 14.033 0 23.266-7.923 23.266-23.031l-16.434-.185c-15.326 0-20.865 4.054-20.865 12.16m-76.707-70.935c-24.189 2.026-37.299 10.318-39.514 32.06h2.031c7.016-12.161 19.388-18.978 35.452-18.978 21.789 0 42.654 13.265 42.654 44.035 0 29.296-20.681 44.22-49.67 44.22-33.422 0-51.333-21.741-51.333-59.881 0-27.637 8.864-59.697 60.38-63.935L637.693.34l.369 22.48zm-8.494 79.596c16.065 0 22.528-9.397 22.528-22.479 0-14.187-7.202-22.478-21.974-22.478-14.033 0-21.973 7.738-25.666 14.924 0 17.688 6.463 30.033 25.112 30.033m-186.09-68.173c10.895-2.58 23.635-3.316 31.76-3.316 38.776 0 49.116 17.135 48.747 35.928v35.561l9.232.184v18.425c-4.062 1.105-8.494 2.026-12.925 2.026-10.895 0-16.434-5.711-17.727-12.713h-1.661c-6.648 9.213-18.465 13.266-29.913 13.266-17.726 0-34.16-9.581-34.16-29.848 0-22.847 21.05-28.743 41.915-28.743h21.234c-.369-10.87-13.11-14.74-27.327-14.74-8.494 0-19.019 1.474-26.59 4.422zm19.204 59.513c0 7.923 5.354 11.055 14.033 11.055 14.033 0 23.265-7.923 23.265-23.031l-16.433-.185c-15.326 0-20.865 4.054-20.865 12.16m-96.861 27.638H308.58v-88.44h25.851v32.06h6.463c12.74 0 17.172-2.211 25.112-20.82l4.801-11.24h25.296v2.027l-7.016 17.32c-4.247 10.502-9.602 18.609-16.065 23.768l25.851 43.299v2.026H371.73l-21.604-36.113h-15.695zM260.6 35.532h25.85v88.439H260.6v-31.69c-7.017 2.947-15.142 4.79-23.451 4.79-19.572 0-35.267-10.134-35.267-35.192V35.532h25.85v26.532c0 8.107 5.17 14.924 16.434 14.924 5.17 0 11.263-1.474 16.434-3.685zm-119.4 91.387c-27.143 0-49.854-17.688-49.854-47.168s22.711-47.168 49.854-47.168c26.959 0 49.671 17.688 49.671 47.168S168.159 126.92 141.2 126.92m0-21.741c14.587 0 23.081-10.871 23.081-25.427s-8.494-25.426-23.081-25.426c-14.771 0-23.265 10.87-23.265 25.426s8.494 25.427 23.265 25.427M84.938 35.532v22.847H55.763v65.592h-25.85V58.379H.738V35.532z"/>
</svg>
